!!!OTL: EIN KAEFER AUF DEM ZAUNE SASS
!!!ARE: Europa, Mitteleuropa, Deutschland, Mecklenburg
!!!SCT: E0164
!!!YEM: Copyright 1995, estate of Helmut Schaffrath.
**kern
*ICvox
*Ivox
*M3/4
*k[f#]
*G:
{8d
=1
8.g
16f#
8g
8b
8b
8g
=2
8.f#
16e
2d
=3
4f#
4g
8r}
{8d
=4
8.a
16g#
4a
4a
=5
8.dd
16dd
4.dd}
{8g
=6
8.f#
16g
4a
4d
=7
8.cc
16b
2b
=8
4f#
4g
8r}
==
!!!AGN: erzaehlendes Volks - Lied, Sage, Tier - Maerchen, Scherz     Ballade ?
!!!ONB: ESAC (Essen Associative Code) Database: ERK1
!!!AMT: simple triple
!!!AIN: vox
!!!EED: Helmut Schaffrath
!!!EEV: 1.0
*-
!!!title: @{OTL} [@{SCT}]
